Resources/lut/space1.CUBE
#Created by: Adobe Photoshop Export Color Lookup Plugin
TITLE "space1lut.jpg"
#LUT size
LUT_3D_SIZE 32
#data domain
DOMAIN_MIN 0.0 0.0 0.0
DOMAIN_MAX 1.0 1.0 1.0
#LUT data points
0.000000 0.000000 0.000000
0.000000 0.000000 0.000000
0.000000 0.000000 0.000000
0.000000 0.000000 0.000000
0.000000 0.000000 0.000000
0.000000 0.000000 0.000000
0.000000 0.000000 0.000000
0.000000 0.000000 0.000000
0.000000 0.000000 0.000000
0.000000 0.000000 0.000000
0.333313 0.000000 0.000000
0.333313 0.000000 0.000000
0.333313 0.000000 0.000000
0.333313 0.000000 0.000000
0.333313 0.000000 0.000000
0.333313 0.000000 0.000000
0.333313 0.000000 0.000000
0.333313 0.000000 0.000000
0.333313 0.000000 0.000000
0.666656 0.000000 0.000000
0.666656 0.000000 0.000000
0.666656 0.000000 0.000000
0.666656 0.000000 0.000000
0.666656 0.000000 0.000000
0.666656 0.000000 0.000000
0.666656 0.000000 0.000000
0.666656 0.000000 0.000000
0.666656 0.000000 0.000000
1.000000 0.000000 0.000000
1.000000 0.000000 0.000000
1.000000 0.000000 0.000000
1.000000 0.000000 0.000000
0.000000 0.000000 0.000000
0.000000 0.000000 0.000000
0.000000 0.000000 0.000000
0.000000 0.000000 0.000000
0.000000 0.000000 0.000000
0.000000 0.000000 0.000000
0.000000 0.000000 0.000000
0.000000 0.000000 0.000000
0.000000 0.000000 0.000000
0.333313 0.000000 0.000000
0.333313 0.000000 0.000000
0.333313 0.000000 0.000000
0.333313 0.000000 0.000000
0.333313 0.000000 0.000000
0.333313 0.000000 0.000000
0.333313 0.000000 0.000000
0.333313 0.000000 0.000000
0.333313 0.000000 0.000000
0.666656 0.000000 0.000000
0.666656 0.000000 0.000000
0.666656 0.000000 0.000000
0.666656 0.000000 0.000000
0.666656 0.000000 0.000000
0.666656 0.000000 0.000000
0.666656 0.000000 0.000000
0.666656 0.000000 0.000000
0.666656 0.000000 0.000000
1.000000 0.000000 0.000000
1.000000 0.000000 0.000000
1.000000 0.000000 0.000000
1.000000 0.000000 0.000000
1.000000 0.000000 0.000000
0.000000 0.000000 0.000000
0.000000 0.000000 0.000000
0.000000 0.000000 0.000000
0.000000 0.000000 0.000000
0.000000 0.000000 0.000000
0.000000 0.000000 0.000000
0.000000 0.000000 0.000000
0.000000 0.000000 0.000000
0.333313 0.000000 0.000000
0.333313 0.000000 0.000000
0.333313 0.000000 0.000000
0.333313 0.000000 0.000000
0.333313 0.000000 0.000000
0.333313 0.000000 0.000000
0.333313 0.000000 0.000000
0.333313 0.000000 0.000000
0.333313 0.000000 0.000000
0.666656 0.000000 0.000000
0.666656 0.000000 0.000000
0.666656 0.000000 0.000000
0.666656 0.000000 0.000000
0.666656 0.000000 0.000000
0.666656 0.000000 0.000000
0.666656 0.000000 0.000000
0.666656 0.000000 0.000000
0.666656 0.000000 0.000000
1.000000 0.000000 0.000000
1.000000 0.000000 0.000000
1.000000 0.000000 0.000000
1.000000 0.000000 0.000000
1.000000 0.000000 0.000000
1.000000 0.000000 0.000000
0.000000 0.000000 0.000000
0.000000 0.000000 0.000000
0.000000 0.000000 0.000000
0.000000 0.000000 0.000000
0.000000 0.000000 0.000000
0.000000 0.000000 0.000000
0.000000 0.000000 0.000000
0.000000 0.000000 0.000000
0.333313 0.000000 0.000000
0.333313 0.000000 0.000000
0.333313 0.000000 0.000000
0.333313 0.000000 0.000000
0.333313 0.000000 0.000000
0.333313 0.000000 0.000000
0.333313 0.000000 0.000000
0.333313 0.000000 0.000000
0.333313 0.000000 0.000000
0.666656 0.000000 0.000000
0.666656 0.000000 0.000000
0.666656 0.000000 0.000000
0.666656 0.000000 0.000000
0.666656 0.000000 0.000000
0.666656 0.000000 0.000000
0.666656 0.000000 0.000000
0.666656 0.000000 0.000000
0.666656 0.000000 0.000000
1.000000 0.000000 0.000000
1.000000 0.000000 0.000000
1.000000 0.000000 0.000000
1.000000 0.000000 0.000000
1.000000 0.000000 0.000000
1.000000 0.000000 0.000000
0.000000 0.000000 0.000000
0.000000 0.000000 0.000000
0.000000 0.000000 0.000000
0.000000 0.000000 0.000000
0.000000 0.000000 0.000000
0.000000 0.000000 0.000000
0.000000 0.000000 0.000000
0.000000 0.000000 0.000000
0.333313 0.000000 0.000000
0.333313 0.000000 0.000000
0.333313 0.000000 0.000000
0.333313 0.000000 0.000000
0.333313 0.000000 0.000000
0.333313 0.000000 0.000000
0.333313 0.000000 0.000000
0.333313 0.000000 0.000000
0.666656 0.000000 0.000000
0.666656 0.000000 0.000000
0.666656 0.000000 0.000000
0.666656 0.000000 0.000000
0.666656 0.000000 0.000000
0.666656 0.000000 0.000000
0.666656 0.000000 0.000000
0.666656 0.000000 0.000000
0.666656 0.000000 0.000000
1.000000 0.000000 0.000000
1.000000 0.000000 0.000000
1.000000 0.000000 0.000000
1.000000 0.000000 0.000000
1.000000 0.000000 0.000000
1.000000 0.000000 0.000000
1.000000 0.000000 0.000000
0.000000 0.000000 0.000000
0.000000 0.000000 0.000000
0.000000 0.000000 0.000000
0.000000 0.000000 0.000000
0.000000 0.000000 0.000000
0.000000 0.000000 0.000000
0.000000 0.000000 0.000000
0.000000 0.000000 0.000000
0.333313 0.000000 0.000000
0.333313 0.000000 0.000000
0.333313 0.000000 0.000000
0.333313 0.000000 0.000000
0.333313 0.000000 0.000000
0.333313 0.000000 0.000000
0.333313 0.000000 0.000000
0.333313 0.000000 0.000000
0.666656 0.000000 0.000000
0.666656 0.000000 0.000000
0.666656 0.000000 0.000000
0.666656 0.000000 0.000000
0.666656 0.000000 0.000000
0.666656 0.000000 0.000000
0.666656 0.000000 0.000000
0.666656 0.000000 0.000000
1.000000 0.000000 0.000000
1.000000 0.000000 0.000000
1.000000 0.000000 0.000000
1.000000 0.000000 0.000000
1.000000 0.000000 0.000000
1.000000 0.000000 0.000000
1.000000 0.000000 0.000000
1.000000 0.000000 0.000000
0.000000 0.000000 0.000000
0.000000 0.000000 0.000000
0.000000 0.000000 0.000000
0.000000 0.000000 0.000000
0.000000 0.000000 0.000000
0.000000 0.000000 0.000000
0.000000 0.000000 0.000000
0.000000 0.000000 0.000000
0.333313 0.000000 0.000000
0.333313 0.000000 0.000000
0.333313 0.000000 0.000000
0.333313 0.000000 0.000000
0.333313 0.000000 0.000000
0.333313 0.000000 0.000000
0.333313 0.000000 0.000000
0.333313 0.000000 0.000000
0.666656 0.000000 0.000000
0.666656 0.000000 0.000000
0.666656 0.000000 0.000000
0.666656 0.000000 0.000000
0.666656 0.000000 0.000000
0.666656 0.000000 0.000000
0.666656 0.000000 0.000000
1.000000 0.000000 0.000000
1.000000 0.000000 0.000000
1.000000 0.000000 0.000000
1.000000 0.000000 0.000000
1.000000 0.000000 0.000000
1.000000 0.000000 0.000000
1.000000 0.000000 0.000000
1.000000 0.000000 0.000000
1.000000 0.000000 0.000000
0.000000 0.000000 0.000000
0.000000 0.000000 0.000000
0.000000 0.000000 0.000000
0.000000 0.000000 0.000000
0.000000 0.000000 0.000000
0.000000 0.000000 0.000000
0.000000 0.000000 0.000000
0.333313 0.000000 0.000000
0.333313 0.000000 0.000000
0.333313 0.000000 0.000000
0.333313 0.000000 0.000000
0.333313 0.000000 0.000000
0.333313 0.000000 0.000000
0.333313 0.000000 0.000000
0.333313 0.000000 0.000000
0.333313 0.000000 0.000000
0.666656 0.000000 0.000000
0.666656 0.000000 0.000000
0.666656 0.000000 0.000000
0.666656 0.000000 0.000000
0.666656 0.000000 0.000000
0.666656 0.000000 0.000000
0.666656 0.000000 0.000000
1.000000 0.000000 0.000000
1.000000 0.000000 0.000000
1.000000 0.000000 0.000000
1.000000 0.000000 0.000000
1.000000 0.000000 0.000000
1.000000 0.000000 0.000000
1.000000 0.000000 0.000000
1.000000 0.000000 0.000000
1.000000 0.000000 0.000000
0.000000 0.000000 0.000000
0.000000 0.000000 0.000000
0.000000 0.000000 0.000000
0.000000 0.000000 0.000000
0.000000 0.000000 0.000000
0.000000 0.000000 0.000000
0.000000 0.000000 0.000000
0.333313 0.000000 0.000000
0.333313 0.000000 0.000000
0.333313 0.000000 0.000000
0.333313 0.000000 0.000000
0.333313 0.000000 0.000000
0.333313 0.000000 0.000000
0.333313 0.000000 0.000000
0.333313 0.000000 0.000000
0.333313 0.000000 0.000000
0.666656 0.000000 0.000000
0.666656 0.000000 0.000000
0.666656 0.000000 0.000000
0.666656 0.000000 0.000000
0.666656 0.000000 0.000000
0.666656 0.000000 0.000000
0.666656 0.000000 0.000000
1.000000 0.000000 0.000000
1.000000 0.000000 0.000000
1.000000 0.000000 0.000000
1.000000 0.000000 0.000000
1.000000 0.000000 0.000000
1.000000 0.000000 0.000000
1.000000 0.000000 0.000000
1.000000 0.000000 0.000000
1.000000 0.000000 0.000000
0.000000 0.000000 0.000000
0.000000 0.000000 0.000000
0.000000 0.000000 0.000000
0.000000 0.000000 0.000000
0.000000 0.000000 0.000000
0.000000 0.000000 0.000000
0.000000 0.333313 0.000000
0.333313 0.333313 0.000000
0.333313 0.333313 0.000000
0.333313 0.333313 0.000000
0.333313 0.333313 0.000000
0.333313 0.333313 0.000000
0.333313 0.333313 0.000000
0.333313 0.333313 0.000000
0.333313 0.333313 0.000000
0.333313 0.333313 0.000000
0.666656 0.333313 0.000000
0.666656 0.333313 0.000000
0.666656 0.333313 0.000000
0.666656 0.333313 0.000000
0.666656 0.333313 0.000000
0.666656 0.333313 0.000000
0.666656 0.333313 0.000000
0.666656 0.333313 0.000000
1.000000 0.333313 0.000000
1.000000 0.333313 0.000000
1.000000 0.000000 0.000000
1.000000 0.000000 0.000000
1.000000 0.000000 0.000000
1.000000 0.000000 0.000000
1.000000 0.000000 0.000000
1.000000 0.000000 0.000000
0.000000 0.000000 0.000000
0.000000 0.333313 0.000000
0.000000 0.333313 0.000000
0.000000 0.333313 0.000000
0.000000 0.333313 0.000000
0.000000 0.333313 0.000000
0.333313 0.333313 0.000000
0.333313 0.333313 0.000000
0.333313 0.333313 0.000000
0.333313 0.333313 0.000000
0.333313 0.333313 0.000000
0.333313 0.333313 0.000000
0.333313 0.333313 0.000000
0.333313 0.333313 0.000000
0.333313 0.333313 0.000000
0.666656 0.333313 0.000000
0.666656 0.333313 0.000000
0.666656 0.333313 0.000000
0.666656 0.333313 0.000000
0.666656 0.333313 0.000000
0.666656 0.333313 0.000000
0.666656 0.333313 0.000000
0.666656 0.333313 0.000000
0.666656 0.333313 0.000000
1.000000 0.333313 0.000000
1.000000 0.333313 0.000000
1.000000 0.333313 0.000000
1.000000 0.333313 0.000000
1.000000 0.333313 0.000000
1.000000 0.333313 0.000000
1.000000 0.333313 0.000000
1.000000 0.333313 0.333313
0.000000 0.333313 0.000000
0.000000 0.333313 0.000000
0.000000 0.333313 0.000000
0.000000 0.333313 0.000000
0.000000 0.333313 0.000000
0.000000 0.333313 0.000000
0.333313 0.333313 0.000000
0.333313 0.333313 0.000000
0.333313 0.333313 0.000000
0.333313 0.333313 0.000000
0.333313 0.333313 0.000000
0.333313 0.333313 0.000000
0.333313 0.333313 0.000000
0.333313 0.333313 0.000000
0.333313 0.333313 0.000000
0.666656 0.333313 0.000000
0.666656 0.333313 0.000000
0.666656 0.333313 0.000000
0.666656 0.333313 0.000000
0.666656 0.333313 0.000000
0.666656 0.333313 0.000000
0.666656 0.333313 0.000000
0.666656 0.333313 0.000000
0.666656 0.333313 0.000000
1.000000 0.333313 0.000000
1.000000 0.333313 0.000000
1.000000 0.333313 0.000000
1.000000 0.333313 0.000000
1.000000 0.333313 0.000000
1.000000 0.333313 0.000000
1.000000 0.333313 0.000000
1.000000 0.333313 0.000000
0.000000 0.333313 0.000000
0.000000 0.333313 0.000000
0.000000 0.333313 0.000000
0.000000 0.333313 0.000000
0.000000 0.333313 0.000000
0.333313 0.333313 0.000000
0.333313 0.333313 0.000000
0.333313 0.333313 0.000000
0.333313 0.333313 0.000000
0.333313 0.333313 0.000000
0.333313 0.333313 0.000000
0.333313 0.333313 0.000000
0.333313 0.333313 0.000000
0.333313 0.333313 0.000000
0.333313 0.333313 0.000000
0.666656 0.333313 0.000000
0.666656 0.333313 0.000000
0.666656 0.333313 0.000000
0.666656 0.333313 0.000000
0.666656 0.333313 0.000000
0.666656 0.333313 0.000000
0.666656 0.333313 0.000000
0.666656 0.333313 0.000000
0.666656 0.333313 0.000000
1.000000 0.333313 0.000000
1.000000 0.333313 0.000000
1.000000 0.333313 0.000000
1.000000 0.333313 0.000000
1.000000 0.333313 0.000000
1.000000 0.333313 0.000000
1.000000 0.333313 0.000000
1.000000 0.333313 0.000000
0.000000 0.333313 0.000000
0.000000 0.333313 0.000000
0.000000 0.333313 0.000000
0.000000 0.333313 0.000000
0.000000 0.333313 0.000000
0.333313 0.333313 0.000000
0.333313 0.333313 0.000000
0.333313 0.333313 0.000000
0.333313 0.333313 0.000000
0.333313 0.333313 0.000000
0.333313 0.333313 0.000000
0.333313 0.333313 0.000000
0.333313 0.333313 0.000000
0.333313 0.333313 0.000000
0.333313 0.333313 0.000000
0.666656 0.333313 0.000000
0.666656 0.333313 0.000000
0.666656 0.333313 0.000000
0.666656 0.333313 0.000000
0.666656 0.333313 0.000000
0.666656 0.333313 0.000000
0.666656 0.333313 0.000000
0.666656 0.333313 0.000000
1.000000 0.333313 0.000000
1.000000 0.333313 0.000000
1.000000 0.333313 0.000000
1.000000 0.333313 0.000000
1.000000 0.333313 0.000000
1.000000 0.333313 0.000000
1.000000 0.333313 0.000000
1.000000 0.333313 0.000000
1.000000 0.333313 0.000000
0.000000 0.333313 0.000000
0.000000 0.333313 0.000000
0.000000 0.333313 0.000000
0.000000 0.333313 0.000000
0.333313 0.333313 0.000000
0.333313 0.333313 0.000000
0.333313 0.333313 0.000000
0.333313 0.333313 0.000000
0.333313 0.333313 0.000000
0.333313 0.333313 0.000000
0.333313 0.333313 0.000000
0.333313 0.333313 0.000000
0.333313 0.333313 0.000000
0.333313 0.333313 0.000000
0.333313 0.333313 0.000000
0.666656 0.333313 0.000000
0.666656 0.333313 0.000000
0.666656 0.333313 0.000000
0.666656 0.333313 0.000000
0.666656 0.333313 0.000000
0.666656 0.333313 0.000000
0.666656 0.333313 0.000000
0.666656 0.333313 0.000000
1.000000 0.333313 0.000000
1.000000 0.333313 0.000000
1.000000 0.333313 0.000000
1.000000 0.333313 0.000000
1.000000 0.333313 0.000000
1.000000 0.333313 0.000000
1.000000 0.333313 0.000000
1.000000 0.333313 0.000000
1.000000 0.333313 0.000000
0.000000 0.333313 0.000000
0.000000 0.333313 0.000000
0.000000 0.333313 0.000000
0.333313 0.333313 0.000000
0.333313 0.333313 0.000000
0.333313 0.333313 0.000000
0.333313 0.333313 0.000000
0.333313 0.333313 0.000000
0.333313 0.333313 0.000000
0.333313 0.333313 0.000000
0.333313 0.333313 0.000000
0.333313 0.333313 0.000000
0.333313 0.333313 0.000000
0.333313 0.333313 0.000000
0.666656 0.333313 0.000000
0.666656 0.333313 0.000000
0.666656 0.333313 0.000000
0.666656 0.333313 0.000000
0.666656 0.333313 0.000000
0.666656 0.333313 0.000000
0.666656 0.333313 0.000000
0.666656 0.333313 0.000000
0.666656 0.333313 0.000000
1.000000 0.333313 0.000000
1.000000 0.333313 0.000000
1.000000 0.333313 0.000000
1.000000 0.333313 0.000000
1.000000 0.333313 0.000000
1.000000 0.333313 0.000000
1.000000 0.333313 0.000000
1.000000 0.333313 0.000000
1.000000 0.333313 0.000000
0.000000 0.333313 0.000000
0.000000 0.333313 0.000000
0.333313 0.333313 0.000000
0.333313 0.333313 0.000000
0.333313 0.333313 0.000000
0.333313 0.333313 0.000000
0.333313 0.333313 0.000000
0.333313 0.333313 0.000000
0.333313 0.333313 0.000000
0.333313 0.333313 0.000000
0.333313 0.333313 0.000000
0.333313 0.333313 0.000000
0.333313 0.333313 0.000000
0.333313 0.333313 0.000000
0.666656 0.333313 0.000000
0.666656 0.333313 0.000000
0.666656 0.333313 0.000000
0.666656 0.333313 0.000000
0.666656 0.333313 0.000000
0.666656 0.333313 0.000000
0.666656 0.333313 0.000000
0.666656 0.333313 0.000000
0.666656 0.333313 0.000000
1.000000 0.333313 0.000000
1.000000 0.333313 0.000000
1.000000 0.333313 0.000000
1.000000 0.333313 0.000000
1.000000 0.333313 0.000000
1.000000 0.333313 0.000000
1.000000 0.333313 0.000000
1.000000 0.333313 0.000000
1.000000 0.333313 0.000000
0.000000 0.333313 0.000000
0.333313 0.333313 0.000000
0.333313 0.333313 0.000000
0.333313 0.333313 0.000000
0.333313 0.333313 0.000000
0.333313 0.333313 0.000000
0.333313 0.333313 0.000000
0.333313 0.333313 0.000000
0.333313 0.333313 0.000000
0.333313 0.333313 0.000000
0.333313 0.333313 0.000000
0.333313 0.333313 0.000000
0.333313 0.333313 0.000000
0.333313 0.333313 0.000000
0.666656 0.333313 0.000000
0.666656 0.333313 0.000000
0.666656 0.333313 0.000000
0.666656 0.333313 0.000000
0.666656 0.333313 0.000000
0.666656 0.333313 0.000000
0.666656 0.333313 0.000000
0.666656 0.666656 0.000000
0.666656 0.666656 0.000000
1.000000 0.666656 0.000000
1.000000 0.666656 0.000000
1.000000 0.666656 0.000000
1.000000 0.666656 0.000000
1.000000 0.666656 0.000000
1.000000 0.666656 0.000000
1.000000 0.666656 0.000000
1.000000 0.666656 0.000000
1.000000 0.666656 0.000000
0.333313 0.333313 0.000000
0.333313 0.333313 0.000000
0.333313 0.333313 0.000000
0.333313 0.333313 0.000000
0.333313 0.333313 0.000000
0.333313 0.333313 0.000000
0.333313 0.333313 0.000000
0.333313 0.333313 0.000000
0.333313 0.333313 0.000000
0.333313 0.333313 0.000000
0.333313 0.666656 0.000000
0.333313 0.666656 0.000000
0.333313 0.666656 0.000000
0.666656 0.666656 0.000000
0.666656 0.666656 0.000000
0.666656 0.666656 0.000000
0.666656 0.666656 0.000000
0.666656 0.666656 0.000000
0.666656 0.666656 0.000000
0.666656 0.666656 0.000000
0.666656 0.666656 0.000000
0.666656 0.666656 0.000000
1.000000 0.666656 0.000000
1.000000 0.666656 0.000000
1.000000 0.666656 0.000000
1.000000 0.666656 0.000000
1.000000 0.666656 0.000000
1.000000 0.666656 0.000000
1.000000 0.666656 0.000000
1.000000 0.666656 0.000000
1.000000 0.666656 0.000000
1.000000 0.666656 0.000000
0.333313 0.333313 0.000000
0.333313 0.333313 0.000000
0.333313 0.333313 0.000000
0.333313 0.333313 0.000000
0.333313 0.333313 0.000000
0.333313 0.666656 0.000000
0.333313 0.666656 0.000000
0.333313 0.666656 0.000000
0.333313 0.666656 0.000000
0.333313 0.666656 0.000000
0.333313 0.666656 0.000000
0.333313 0.666656 0.000000
0.333313 0.666656 0.000000
0.666656 0.666656 0.000000
0.666656 0.666656 0.000000
0.666656 0.666656 0.000000
0.666656 0.666656 0.000000
0.666656 0.666656 0.000000
0.666656 0.666656 0.000000
0.666656 0.666656 0.000000
0.666656 0.666656 0.000000
0.666656 0.666656 0.000000
1.000000 0.666656 0.000000
1.000000 0.666656 0.000000
1.000000 0.666656 0.000000
1.000000 0.666656 0.000000
1.000000 0.666656 0.000000
1.000000 0.666656 0.000000
1.000000 0.666656 0.000000
1.000000 0.666656 0.000000
1.000000 0.666656 0.000000
1.000000 0.666656 0.000000
0.333313 0.333313 0.000000
0.333313 0.666656 0.000000
0.333313 0.666656 0.000000
0.333313 0.666656 0.000000
0.333313 0.666656 0.000000
0.333313 0.666656 0.000000
0.333313 0.666656 0.000000
0.333313 0.666656 0.000000
0.333313 0.666656 0.000000
0.333313 0.666656 0.000000
0.333313 0.666656 0.000000
0.333313 0.666656 0.000000
0.666656 0.666656 0.000000
0.666656 0.666656 0.000000
0.666656 0.666656 0.000000
0.666656 0.666656 0.000000
0.666656 0.666656 0.000000
0.666656 0.666656 0.000000
0.666656 0.666656 0.000000
0.666656 0.666656 0.000000
0.666656 0.666656 0.000000
0.666656 0.666656 0.000000
1.000000 0.666656 0.000000
1.000000 0.666656 0.000000
1.000000 0.666656 0.000000
1.000000 0.666656 0.000000
1.000000 0.666656 0.000000
1.000000 0.666656 0.000000
1.000000 0.666656 0.000000
1.000000 0.666656 0.000000
1.000000 0.666656 0.000000
1.000000 0.666656 0.000000
0.333313 0.666656 0.000000
0.333313 0.666656 0.000000
0.333313 0.666656 0.000000
0.333313 0.666656 0.000000
0.333313 0.666656 0.000000
0.333313 0.666656 0.000000
0.333313 0.666656 0.000000
0.333313 0.666656 0.000000
0.333313 0.666656 0.000000
0.333313 0.666656 0.000000
0.333313 0.666656 0.000000
0.333313 0.666656 0.000000
0.666656 0.666656 0.000000
0.666656 0.666656 0.000000
0.666656 0.666656 0.000000
0.666656 0.666656 0.000000
0.666656 0.666656 0.000000
0.666656 0.666656 0.000000
0.666656 0.666656 0.000000
0.666656 0.666656 0.000000
0.666656 0.666656 0.000000
0.666656 0.666656 0.000000
1.000000 0.666656 0.000000
1.000000 0.666656 0.000000
1.000000 0.666656 0.000000
1.000000 0.666656 0.000000
1.000000 0.666656 0.000000
1.000000 0.666656 0.000000
1.000000 0.666656 0.000000
1.000000 0.666656 0.000000
1.000000 0.666656 0.000000
1.000000 0.666656 0.000000
0.333313 0.666656 0.000000
0.333313 0.666656 0.000000
0.333313 0.666656 0.000000
0.333313 0.666656 0.000000
0.333313 0.666656 0.000000
0.333313 0.666656 0.000000
0.333313 0.666656 0.000000
0.333313 0.666656 0.000000
0.333313 0.666656 0.000000
0.333313 0.666656 0.000000
0.333313 0.666656 0.000000
0.666656 0.666656 0.000000
0.666656 0.666656 0.000000
0.666656 0.666656 0.000000
0.666656 0.666656 0.000000
0.666656 0.666656 0.000000
0.666656 0.666656 0.000000
0.666656 0.666656 0.000000
0.666656 0.666656 0.000000
0.666656 0.666656 0.000000
0.666656 0.666656 0.000000
1.000000 0.666656 0.000000
1.000000 0.666656 0.000000
1.000000 0.666656 0.000000
1.000000 0.666656 0.000000
1.000000 0.666656 0.000000
1.000000 0.666656 0.000000
1.000000 0.666656 0.000000
1.000000 0.666656 0.000000
1.000000 0.666656 0.000000
1.000000 0.666656 0.000000
1.000000 0.666656 0.333313
0.333313 0.666656 0.000000
0.333313 0.666656 0.000000
0.333313 0.666656 0.000000
0.333313 0.666656 0.000000
0.333313 0.666656 0.000000
0.333313 0.666656 0.000000
0.333313 0.666656 0.000000
0.333313 0.666656 0.000000
0.333313 0.666656 0.000000
0.333313 0.666656 0.000000
0.333313 0.666656 0.000000
0.666656 0.666656 0.000000
0.666656 0.666656 0.000000
0.666656 0.666656 0.000000
0.666656 0.666656 0.000000
0.666656 0.666656 0.000000
0.666656 0.666656 0.000000
0.666656 0.666656 0.000000
0.666656 0.666656 0.000000
0.666656 0.666656 0.000000
0.666656 0.666656 0.000000
1.000000 0.666656 0.000000
1.000000 0.666656 0.000000
1.000000 0.666656 0.000000
1.000000 0.666656 0.000000
1.000000 0.666656 0.000000
1.000000 0.666656 0.000000
1.000000 0.666656 0.000000
1.000000 0.666656 0.000000
1.000000 0.666656 0.000000
1.000000 0.666656 0.000000
1.000000 0.666656 0.333313
0.333313 0.666656 0.000000
0.333313 0.666656 0.000000
0.333313 0.666656 0.000000
0.333313 0.666656 0.000000
0.333313 0.666656 0.000000
0.333313 0.666656 0.000000
0.333313 0.666656 0.000000
0.333313 0.666656 0.000000
0.333313 0.666656 0.000000
0.333313 0.666656 0.000000
0.666656 0.666656 0.000000
0.666656 0.666656 0.000000
0.666656 0.666656 0.000000
0.666656 0.666656 0.000000
0.666656 0.666656 0.000000
0.666656 0.666656 0.000000
0.666656 0.666656 0.000000
0.666656 0.666656 0.000000
0.666656 0.666656 0.000000
0.666656 0.666656 0.000000
0.666656 0.666656 0.000000
1.000000 0.666656 0.000000
1.000000 0.666656 0.000000
1.000000 0.666656 0.000000
1.000000 0.666656 0.000000
1.000000 0.666656 0.000000
1.000000 0.666656 0.000000
1.000000 0.666656 0.000000
1.000000 0.666656 0.000000
1.000000 0.666656 0.000000
1.000000 0.666656 0.000000
1.000000 0.666656 0.333313
0.333313 0.666656 0.000000
0.333313 0.666656 0.000000
0.333313 0.666656 0.000000
0.333313 0.666656 0.000000
0.333313 0.666656 0.000000
0.333313 0.666656 0.000000
0.333313 0.666656 0.000000
0.333313 0.666656 0.000000
0.333313 0.666656 0.000000
0.333313 0.666656 0.000000
0.666656 0.666656 0.000000
0.666656 0.666656 0.000000
0.666656 0.666656 0.000000
0.666656 0.666656 0.000000
0.666656 0.666656 0.000000
0.666656 0.666656 0.000000
0.666656 0.666656 0.000000
0.666656 0.666656 0.000000
0.666656 0.666656 0.000000
0.666656 0.666656 0.000000
1.000000 0.666656 0.000000
1.000000 0.666656 0.000000
1.000000 0.666656 0.000000
1.000000 0.666656 0.000000
1.000000 0.666656 0.000000
1.000000 0.666656 0.000000
1.000000 0.666656 0.000000
1.000000 0.666656 0.000000
1.000000 0.666656 0.000000
1.000000 0.666656 0.000000
1.000000 0.666656 0.333313
1.000000 0.666656 0.333313
0.333313 0.666656 0.000000
0.333313 0.666656 0.000000
0.333313 0.666656 0.000000
0.333313 0.666656 0.000000
0.333313 0.666656 0.000000
0.333313 0.666656 0.000000
0.333313 0.666656 0.000000
0.333313 0.666656 0.000000
0.333313 0.666656 0.000000
0.666656 0.666656 0.000000
0.666656 0.666656 0.000000
0.666656 0.666656 0.000000
0.666656 0.666656 0.000000
0.666656 0.666656 0.000000
0.666656 0.666656 0.000000
0.666656 0.666656 0.000000
0.666656 0.666656 0.000000
0.666656 0.666656 0.000000
0.666656 0.666656 0.000000
0.666656 0.666656 0.000000
1.000000 0.666656 0.000000
1.000000 0.666656 0.000000
1.000000 1.000000 0.000000
1.000000 1.000000 0.000000
1.000000 1.000000 0.000000
1.000000 1.000000 0.000000
1.000000 1.000000 0.000000
1.000000 1.000000 0.000000
1.000000 1.000000 0.000000
1.000000 1.000000 0.000000
1.000000 1.000000 0.333313
1.000000 1.000000 0.333313
0.333313 0.666656 0.000000
0.333313 0.666656 0.000000
0.333313 0.666656 0.000000
0.333313 0.666656 0.000000
0.333313 0.666656 0.000000
0.333313 0.666656 0.000000
0.333313 0.666656 0.000000
0.333313 0.666656 0.000000
0.666656 0.666656 0.000000
0.666656 0.666656 0.000000
0.666656 0.666656 0.000000
0.666656 0.666656 0.000000
0.666656 0.666656 0.000000
0.666656 0.666656 0.000000
0.666656 1.000000 0.000000
0.666656 1.000000 0.000000
0.666656 1.000000 0.000000
0.666656 1.000000 0.000000
