Resources/lut/space1.3DL
#Created by: Adobe Photoshop Export Color Lookup Plugin
#Description: space1lut.jpg
0 33 66 99 132 165 198 231 264 297 330 363 396 429 462 495 528 561 594 627 660 693 726 759 792 825 858 891 924 957 990 1023
0 0 0
0 0 0
0 0 0
0 0 0
0 0 0
0 0 0
0 0 0
0 0 0
0 0 0
0 0 0
0 0 0
0 0 0
0 0 0
0 0 0
0 0 0
0 0 0
0 0 0
0 0 0
0 0 0
0 0 0
0 0 0
0 0 0
0 0 0
0 0 0
0 0 0
0 0 0
0 0 0
0 0 1365
0 0 1365
0 0 1365
1365 0 1365
1365 0 1365
0 0 0
0 0 0
0 0 0
0 0 0
0 0 0
0 0 0
0 0 0
0 0 0
0 0 0
0 0 0
0 0 0
0 0 0
0 0 0
0 0 0
0 0 0
0 0 0
0 0 0
0 0 0
0 0 0
0 0 0
0 0 0
0 0 0
0 0 1365
0 0 1365
0 0 1365
1365 0 1365
1365 0 1365
1365 0 1365
1365 0 1365
1365 0 1365
1365 0 1365
1365 0 1365
0 0 0
0 0 0
0 0 0
0 0 0
0 0 0
0 0 0
0 0 0
0 0 0
0 0 0
0 0 0
0 0 0
0 0 0
0 0 0
0 0 0
0 0 0
0 0 0
0 0 0
0 0 0
0 0 1365
0 0 1365
1365 0 1365
1365 0 1365
1365 0 1365
1365 0 1365
1365 0 1365
1365 0 1365
1365 0 1365
1365 0 1365
1365 0 1365
1365 0 1365
1365 0 1365
1365 0 1365
0 0 0
0 0 0
0 0 0
0 0 0
0 0 0
0 0 0
0 0 0
0 0 0
0 0 0
0 0 0
0 0 0
0 0 0
0 0 0
0 0 0
0 0 0
0 0 0
0 0 1365
0 0 1365
1365 0 1365
1365 0 1365
1365 0 1365
1365 0 1365
1365 0 1365
1365 0 1365
1365 0 1365
1365 0 1365
1365 0 1365
1365 0 1365
1365 0 1365
1365 0 1365
1365 0 1365
1365 0 1365
0 0 0
0 0 0
0 0 0
0 0 0
0 0 0
0 0 0
0 0 0
0 0 0
0 0 0
0 0 0
0 0 0
0 0 0
0 0 0
0 0 0
0 0 0
0 0 0
0 0 1365
1365 0 1365
1365 0 1365
1365 0 1365
1365 0 1365
1365 0 1365
1365 0 1365
1365 0 1365
1365 0 1365
1365 0 1365
1365 0 1365
1365 0 1365
1365 0 1365
1365 0 1365
1365 0 1365
1365 0 1365
0 0 0
0 0 0
0 0 0
0 0 0
0 0 0
0 0 0
0 0 0
0 0 0
0 0 0
0 0 0
0 0 0
0 0 0
0 0 0
0 0 0
0 0 0
0 0 0
0 0 0
1365 0 1365
1365 0 1365
1365 0 1365
1365 0 1365
1365 0 1365
1365 0 1365
1365 0 1365
1365 0 1365
1365 0 1365
1365 0 1365
1365 0 1365
1365 0 1365
1365 0 1365
1365 0 1365
1365 0 1365
0 0 0
0 0 0
0 0 0
0 0 0
0 0 0
0 0 0
0 0 0
0 0 0
0 0 0
0 0 0
0 0 0
0 0 0
0 0 0
0 0 0
0 0 0
0 0 0
0 0 0
1365 0 1365
1365 0 1365
1365 0 1365
1365 0 1365
1365 0 1365
1365 0 1365
1365 0 1365
1365 0 1365
1365 0 1365
1365 0 1365
1365 0 1365
1365 0 1365
1365 0 1365
1365 0 1365
1365 0 2730
0 0 0
0 0 0
0 0 0
0 0 0
0 0 0
0 0 0
0 0 0
0 0 0
0 0 0
0 0 0
0 0 0
0 0 0
0 0 0
0 0 0
0 0 0
0 0 0
0 0 0
1365 0 1365
1365 0 1365
1365 0 1365
1365 0 1365
1365 0 1365
1365 0 1365
1365 0 1365
1365 0 1365
1365 0 1365
1365 0 1365
1365 0 1365
1365 0 1365
1365 0 1365
1365 0 2730
1365 0 2730
0 0 0
0 0 0
0 0 0
0 0 0
0 0 0
0 0 0
0 0 0
0 0 0
0 0 0
0 0 0
0 0 0
0 0 0
0 0 0
0 0 0
0 0 0
0 0 0
1365 0 0
1365 0 1365
1365 0 1365
1365 0 1365
1365 0 1365
1365 0 1365
1365 0 1365
1365 0 1365
1365 0 1365
1365 0 1365
1365 0 1365
1365 0 1365
1365 0 1365
1365 0 1365
1365 0 1365
1365 0 2730
0 0 0
0 0 0
0 0 0
0 0 0
0 0 0
0 0 0
0 0 0
0 0 0
0 0 0
0 0 0
0 0 0
0 0 0
0 0 0
0 0 0
0 0 0
0 0 0
1365 0 0
1365 0 1365
1365 0 1365
1365 0 1365
1365 0 1365
1365 0 1365
1365 0 1365
1365 0 1365
1365 0 1365
1365 0 1365
1365 0 1365
1365 0 1365
1365 0 1365
1365 0 1365
1365 0 1365
1365 0 1365
0 0 0
0 1365 0
0 1365 0
0 1365 0
0 1365 0
0 1365 0
0 1365 0
0 1365 0
0 1365 0
0 1365 0
0 1365 0
0 0 0
0 0 0
0 0 0
0 0 0
1365 0 0
1365 0 1365
1365 0 1365
1365 0 1365
1365 0 1365
1365 0 1365
1365 0 1365
1365 0 1365
1365 0 1365
1365 0 1365
1365 0 1365
1365 0 1365
1365 0 1365
1365 0 1365
1365 0 1365
1365 0 1365
1365 0 1365
0 1365 0
0 1365 0
0 1365 0
0 1365 0
0 1365 0
0 1365 0
0 1365 0
0 1365 0
0 1365 0
0 1365 0
0 1365 0
0 1365 0
0 1365 0
0 1365 0
1365 1365 0
1365 1365 0
1365 1365 1365
1365 1365 1365
1365 1365 1365
1365 1365 1365
1365 1365 1365
1365 0 1365
1365 0 1365
1365 0 1365
1365 0 1365
1365 0 1365
1365 0 1365
1365 0 1365
1365 0 1365
1365 0 1365
1365 0 1365
1365 0 1365
0 1365 0
0 1365 0
0 1365 0
0 1365 0
0 1365 0
0 1365 0
0 1365 0
0 1365 0
0 1365 0
0 1365 0
0 1365 0
0 1365 0
0 1365 0
1365 1365 0
1365 1365 0
1365 1365 0
1365 1365 1365
1365 1365 1365
1365 1365 1365
1365 1365 1365
1365 1365 1365
1365 1365 1365
1365 1365 1365
1365 1365 1365
1365 1365 1365
1365 1365 1365
1365 1365 1365
1365 1365 1365
1365 1365 1365
1365 1365 1365
1365 0 1365
1365 0 1365
0 1365 0
0 1365 0
0 1365 0
0 1365 0
0 1365 0
0 1365 0
0 1365 0
0 1365 0
0 1365 0
0 1365 0
0 1365 0
0 1365 0
1365 1365 0
1365 1365 0
1365 1365 0
1365 1365 0
1365 1365 1365
1365 1365 1365
1365 1365 1365
1365 1365 1365
1365 1365 1365
1365 1365 1365
1365 1365 1365
1365 1365 1365
1365 1365 1365
1365 1365 1365
1365 1365 1365
1365 1365 1365
1365 1365 1365
1365 1365 1365
1365 1365 1365
1365 1365 1365
0 1365 0
0 1365 0
0 1365 0
0 1365 0
0 1365 0
0 1365 0
0 1365 0
0 1365 0
0 1365 0
0 1365 0
1365 1365 0
1365 1365 0
1365 1365 0
1365 1365 0
1365 1365 0
1365 1365 0
1365 1365 1365
1365 1365 1365
1365 1365 1365
1365 1365 1365
1365 1365 1365
1365 1365 1365
1365 1365 1365
1365 1365 1365
1365 1365 1365
1365 1365 1365
1365 1365 1365
1365 1365 1365
1365 1365 1365
1365 1365 1365
1365 1365 1365
1365 1365 1365
0 1365 0
0 1365 0
0 1365 0
0 1365 0
0 1365 0
0 1365 0
0 1365 0
0 1365 0
1365 1365 0
1365 1365 0
1365 1365 0
1365 1365 0
1365 1365 0
1365 1365 0
1365 1365 0
1365 1365 0
1365 1365 1365
1365 1365 1365
1365 1365 1365
1365 1365 1365
1365 1365 1365
1365 1365 1365
1365 1365 1365
1365 1365 1365
1365 1365 1365
1365 1365 1365
1365 1365 1365
1365 1365 1365
1365 1365 1365
1365 1365 1365
1365 1365 1365
1365 1365 1365
0 1365 0
0 1365 0
0 1365 0
0 1365 0
0 1365 0
0 1365 0
1365 1365 0
1365 1365 0
1365 1365 0
1365 1365 0
1365 1365 0
1365 1365 0
1365 1365 0
1365 1365 0
1365 1365 0
1365 1365 0
1365 1365 1365
1365 1365 1365
1365 1365 1365
1365 1365 1365
1365 1365 1365
1365 1365 1365
1365 1365 1365
1365 1365 1365
1365 1365 1365
1365 1365 1365
1365 1365 1365
1365 1365 1365
1365 1365 1365
1365 1365 1365
1365 1365 1365
1365 1365 1365
0 1365 0
0 1365 0
0 1365 0
1365 1365 0
1365 1365 0
1365 1365 0
1365 1365 0
1365 1365 0
1365 1365 0
1365 1365 0
1365 1365 0
1365 1365 0
1365 1365 0
1365 1365 0
1365 1365 0
1365 1365 0
1365 1365 0
1365 1365 1365
1365 1365 1365
1365 1365 1365
1365 1365 1365
1365 1365 1365
1365 1365 1365
1365 1365 1365
1365 1365 1365
1365 1365 1365
1365 1365 1365
1365 1365 1365
1365 1365 1365
1365 1365 1365
1365 1365 1365
2730 1365 1365
1365 1365 0
1365 1365 0
1365 1365 0
1365 1365 0
1365 1365 0
1365 1365 0
1365 1365 0
1365 1365 0
1365 1365 0
1365 1365 0
1365 1365 0
1365 1365 0
1365 1365 0
1365 1365 0
1365 1365 0
1365 1365 0
1365 1365 0
1365 1365 1365
1365 1365 1365
1365 1365 1365
1365 1365 1365
1365 1365 1365
1365 1365 1365
1365 1365 1365
1365 1365 1365
1365 1365 1365
1365 1365 1365
1365 1365 1365
1365 1365 1365
1365 1365 1365
1365 1365 1365
2730 1365 1365
1365 1365 0
1365 1365 0
1365 1365 0
1365 1365 0
1365 1365 0
1365 1365 0
1365 1365 0
1365 1365 0
1365 1365 0
1365 1365 0
1365 1365 0
1365 1365 0
1365 1365 0
1365 1365 0
1365 1365 0
1365 1365 0
1365 1365 0
1365 1365 1365
1365 1365 1365
1365 1365 1365
1365 1365 1365
1365 1365 1365
1365 1365 1365
1365 1365 1365
1365 1365 1365
1365 1365 1365
1365 1365 1365
1365 1365 1365
1365 1365 1365
1365 1365 1365
2730 1365 1365
2730 1365 1365
1365 1365 0
1365 1365 0
1365 1365 0
1365 2730 0
1365 2730 0
1365 2730 0
1365 2730 0
1365 2730 0
1365 2730 0
1365 2730 0
1365 2730 0
1365 2730 0
1365 2730 0
1365 2730 0
1365 2730 0
1365 2730 0
1365 2730 0
1365 2730 1365
1365 2730 1365
1365 1365 1365
1365 1365 1365
1365 1365 1365
1365 1365 1365
1365 1365 1365
1365 1365 1365
1365 1365 1365
1365 1365 1365
1365 1365 1365
1365 1365 1365
2730 1365 1365
2730 1365 1365
2730 1365 1365
1365 2730 0
1365 2730 0
1365 2730 0
1365 2730 0
1365 2730 0
1365 2730 0
1365 2730 0
1365 2730 0
1365 2730 0
1365 2730 0
1365 2730 0
1365 2730 0
1365 2730 0
1365 2730 0
1365 2730 0
1365 2730 0
1365 2730 0
1365 2730 1365
1365 2730 1365
1365 2730 1365
1365 2730 1365
1365 2730 1365
1365 2730 1365
1365 2730 1365
1365 2730 1365
1365 2730 1365
1365 2730 1365
1365 2730 1365
2730 2730 1365
2730 2730 1365
2730 2730 1365
2730 1365 1365
1365 2730 0
1365 2730 0
1365 2730 0
1365 2730 0
1365 2730 0
1365 2730 0
1365 2730 0
1365 2730 0
1365 2730 0
1365 2730 0
1365 2730 0
1365 2730 0
1365 2730 0
1365 2730 0
1365 2730 0
1365 2730 0
1365 2730 0
1365 2730 1365
1365 2730 1365
1365 2730 1365
1365 2730 1365
1365 2730 1365
1365 2730 1365
1365 2730 1365
1365 2730 1365
1365 2730 1365
1365 2730 1365
2730 2730 1365
2730 2730 1365
2730 2730 1365
2730 2730 1365
2730 2730 1365
1365 2730 0
1365 2730 0
1365 2730 0
1365 2730 0
1365 2730 0
1365 2730 0
1365 2730 0
1365 2730 0
1365 2730 0
1365 2730 0
1365 2730 0
1365 2730 0
1365 2730 0
1365 2730 0
1365 2730 0
1365 2730 0
1365 2730 0
1365 2730 1365
1365 2730 1365
1365 2730 1365
1365 2730 1365
1365 2730 1365
1365 2730 1365
1365 2730 1365
1365 2730 1365
1365 2730 1365
2730 2730 1365
2730 2730 1365
2730 2730 1365
2730 2730 1365
2730 2730 1365
2730 2730 1365
1365 2730 0
1365 2730 0
1365 2730 0
1365 2730 0
1365 2730 0
1365 2730 0
1365 2730 0
1365 2730 0
1365 2730 0
1365 2730 0
1365 2730 0
1365 2730 0
1365 2730 0
1365 2730 0
1365 2730 0
1365 2730 0
1365 2730 0
1365 2730 0
1365 2730 1365
1365 2730 1365
1365 2730 1365
1365 2730 1365
1365 2730 1365
1365 2730 1365
1365 2730 1365
2730 2730 1365
2730 2730 1365
2730 2730 1365
2730 2730 1365
2730 2730 1365
2730 2730 1365
2730 2730 1365
1365 2730 0
1365 2730 0
1365 2730 0
1365 2730 0
1365 2730 0
1365 2730 0
1365 2730 0
1365 2730 0
1365 2730 0
1365 2730 0
1365 2730 0
1365 2730 0
1365 2730 0
1365 2730 0
1365 2730 0
1365 2730 0
1365 2730 0
1365 2730 0
1365 2730 1365
1365 2730 1365
1365 2730 1365
1365 2730 1365
1365 2730 1365
1365 2730 1365
2730 2730 1365
2730 2730 1365
2730 2730 1365
2730 2730 1365
2730 2730 1365
2730 2730 1365
2730 2730 1365
2730 2730 1365
1365 2730 0
1365 2730 0
1365 2730 0
1365 2730 0
1365 2730 0
1365 2730 0
1365 2730 0
1365 2730 0
1365 2730 0
1365 2730 0
1365 2730 0
1365 2730 0
1365 2730 0
1365 2730 0
1365 2730 0
1365 2730 0
1365 2730 0
1365 2730 0
1365 2730 1365
1365 2730 1365
1365 2730 1365
1365 2730 1365
1365 2730 1365
2730 2730 1365
2730 2730 1365
2730 2730 1365
2730 2730 1365
2730 2730 1365
2730 2730 1365
2730 2730 1365
2730 2730 1365
2730 2730 1365
1365 2730 0
1365 2730 0
1365 2730 0
1365 2730 0
1365 2730 0
1365 2730 0
1365 2730 0
1365 2730 0
1365 2730 0
1365 2730 0
1365 2730 0
1365 2730 0
1365 2730 0
1365 2730 0
1365 2730 0
1365 2730 0
1365 2730 0
1365 2730 0
1365 2730 1365
1365 2730 1365
1365 2730 1365
2730 2730 1365
2730 2730 1365
2730 2730 1365
2730 2730 1365
2730 2730 1365
2730 2730 1365
2730 2730 1365
2730 2730 1365
2730 2730 1365
2730 2730 1365
2730 2730 1365
1365 2730 0
1365 2730 0
1365 2730 0
1365 2730 0
